X:1608
T:Polska efter Oskar Persson
R:Polska
Z:Klas Krantz, 2009
O:Dalsland
S:Oskar Persson
L:1/8
M:3/4
K:D

a2-(3aga (3fdf | (3dcd (3AFA (3GFG | E>A c>e (3gfg  | 
(3ece (3cBc (3AGF | (3FEF D>F A>d | a2-(3aga (3fdf | 
(3dcd (3AFA (3GFG | E>A c>e (3gfg | (3ece (3cBc (3AGF | D2 d4  :|]

(3ceg b>b (3afa | (3afa d'>c' b>c' | (3bc'b (3afa (3efe | (3ded (3cBA BA |
(3ceg b>b (3afa | (3afa d'>c' b>c' | (3bc'b (3afa (3efe | d2 d'2 z2  :|]

(:musicend:)


(:music:)
